!!!!SEGMENT: pl-kk--kk-i-382--045_studzinski-piotr--ave-maris-stella.krn
!!!cenid: 18xx:1561
!!!COM: Studziński, Piotr
!!!COM-rismID: pe50044409
!!!CDT: 1825/10/16-1869/04/20
!!!CNT: Polish
!!!OTL: Ave maris stella
!!!PDT:
!!!AGN: Sacred
!!!YEC: Copyright 2022 Narodowy Instytut Fryderyka Chopina (https://polishscores.org)
!!!YEM: License CC-BY-4.0 (https://creativecommons.org/licenses/by/4.0)
!!!SMS-siglum: PL-Kk
!!!SMS-shelfmark: Kk.I.382
!!!SMS-shelfwork: 045 W
!!!SMS-variant:
!!!SMS-altvar:
!!!NIFC-rismSourceID: 1001139027
!!!NIFC-rismChildID: 1001140932
!!!NIFC-islandoraID: pl-kk:6162
!!!URL-pdf-islandora: https://repozytorium.nifc.pl/islandora/object/pl-kk%3A6162/datastream/PDF/view
!!!URL-scan: https://polish.musicsources.pl/pl/lokalizacje/galeria/rekopisy/5994 @EN{Scan on Polish Music Sources Website} @PL{Skany w portalu Dziedzictwo Muzyki Polskiej w otwartym dostępie}
!!!IIIF:
!!!ONB-nifc: UWAGA: obsada: S/T1, A/B1, T2, B2. Skany 0054, 0200, 0127, 0262 (Andantino No 33)
!!!AIN: 1 alto 1 empty 2 tenor
!!!key:
**kern	**text	**dynam	**kern	**text	**dynam	**kern	**text	**text	**dynam	**kern	**text	**dynam
*part4	*	*	*part3	*	*	*part2	*	*	*	*part1	*	*
*staff4	*	*	*staff3	*	*	*staff2	*	*	*	*staff1	*	*
*Iempty	*	*	*Itenor	*	*	*Ialto	*	*	*	*Itenor	*	*
*I"Bas IIgi	*	*	*I"Tenore II	*	*	*I"Alto vel Basso I	*	*	*	*I"Soprano vel Tenore I.	*	*
*I'B II	*	*	*I'T II	*	*	*I'A vel B I	*	*	*	*I'S vel T I	*	*
*clefF4	*	*	*clefG2	*	*	*clefF4	*	*	*	*clefG2	*	*
*	*	*	*ITrd7c12	*	*	*	*	*	*	*	*	*
*k[]	*	*	*k[]	*	*	*k[]	*	*	*	*k[]	*	*
*C:	*	*	*C:	*	*	*C:	*	*	*	*C:	*	*
*M4/4	*	*	*M4/4	*	*	*M4/4	*	*	*	*M4/4	*	*
*met(c)	*	*	*met(c)	*	*	*met(c)	*	*	*	*met(c)	*	*
=1	=1	=1	=1	=1	=1	=1	=1	=1	=1	=1	=1	=1
*4,8\middle or right:global	*	*	*4,8,16\middle or right	*	*	*4,8,16\middle or right	*	*	*	*4,8,16\middle or right	*	*
!	!	!	!	!	!	!LO:TX:t=P:problem=prawdopodobnie partia powinna zostać zapisana w kluczu wiolinowym oktawę wyżej	!	!	!	!	!	!
!LO:TX:a:t=Andantino No&colon;33	!	!	!LO:TX:a:t=Andantino No&colon;33	!	!	!LO:TX:a:t=Andantino No&colon;33	!	!	!	!LO:TX:a:t=Andantine No&colon;33.	!	!
4.C/	A-	.	4.c\	A-	.	4.G\	A-	.	.	4.ee\	A-	.
.	.	<	.	.	<	.	.	.	<	.	.	<
8C/	-ve	.	8c\	-ve	.	8G\	-ve	.	.	8ee\	-ve	.
4C/	Ma-	.	4c\	Ma-	.	4G\	Ma-	.	.	4ee\	Ma-	.
.	.	[	.	.	.	.	.	.	.	.	.	[
4C/	-ris	.	4c\	-ris	[[	4G\	-ris	.	[	4ee\	-ris	.
=2	=2	=2	=2	=2	=2	=2	=2	=2	=2	=2	=2	=2
*	*	*	*	*	*	*2\right	*	*	*	*	*	*
(4D/	stel-	>	(4.B\	stel-	.	2G\	stel-	.	>	(4.gg^\	stel-	.
4GG/)	.	.	.	.	.	.	.	.	.	.	.	.
.	.	]	8d\	.	>	.	.	.	.	8ff\	.	.
4C/	-la	.	4c\)	-la	.	4G\	-la	.	]	4ee\)	-la	.
4r	.	.	4r	.	]	4r	.	.	.	4r	.	.
!LO:LB:g=original	!	!	!LO:LB:g=original	!	!	!LO:LB:g=original	!	!	!	!LO:LB:g=original	!	!
=3	=3	=3	=3	=3	=3	=3	=3	=3	=3	=3	=3	=3
!	!	!	!	!	!	!	!	!	!	!	!	!LO:DY:a
4.D\	De-	<	4.A/	De-	<	4.F#X\	De-	.	<	4.cc\	De-	<
8D\	-i	.	8A/	-i	.	8F#\	-i	.	.	8cc\	-i	.
4D\	Ma-	.	(16B/LL	Ma-	.	4F#\	Ma-	.	.	(16dd\LL	Ma-	[
.	.	.	16A/	.	.	.	.	.	.	16cc\	.	.
.	.	[	16G#X/	.	.	.	.	.	.	16b\	.	.
.	.	.	16A/JJ)	.	[	.	.	.	.	16cc\JJ	.	.
4D\	-ter	.	(8.c\L	.	.	4F#\	-ter	.	[	8.ee\L	.	.
.	.	.	16B\Jk)	-ter	.	.	.	.	.	16dd\Jk)	-ter	.
=4	=4	=4	=4	=4	=4	=4	=4	=4	=4	=4	=4	=4
*	*	*	*	*	*	*	*	*	*	*2\right	*	*
2GG/	al-	>	2A/	al-	>	(4F#X\	al-	.	>	(2cc\	al-	>
.	.	]	.	.	.	4D\)	.	.	.	.	.	]
4GG/	-ma	.	4G/	-ma,	.	4G\	-ma,	.	]	4b\)	-ma	.
4r	.	.	4r	.	]	4r	.	.	.	4r	.	.
=5	=5	=5	=5	=5	=5	=5	=5	=5	=5	=5	=5	=5
!LO:TX:t=P:problem=diminuendolike accent	!	!	!	!	!	!	!	!	!	!	!	!
!	!LO:MO:mod=atque	!	!	!	!	!	!	!	!	!	!	!
!LO:TX:t=P:problem=zmiana rytmiczna dopisana ołówkiem [4.D 8D]	!	!	!	!LO:MO:mod=at-	!	!	!LO:MO:mod=at-	!	!	!	!LO:MO:mod=at-	!
2D^>/	adque	.	4.d^\	ad-	.	4A^\	ad-	.	.	4.ff^\	ad-	.
.	.	.	.	.	.	4A-X\	-que	.	.	.	.	.
.	.	.	8d\	-que	.	.	.	.	.	8ff\	-que	.
4BB/	sem-	.	(16e\LL	sem-	.	4G\	sem-	.	.	(16gg\LL	sem-	.
.	.	.	16d\	.	.	.	.	.	.	16ff\	.	.
.	.	.	16c#X\	.	.	.	.	.	.	16ee\	.	.
.	.	.	16d\JJ	.	.	.	.	.	.	16ff\JJ	.	.
4BB/	-per	.	8f\L	.	.	4G\	-per	.	.	8aa\L)	-per	.
.	.	.	8e\J)	-per	.	.	.	.	.	8gg\J	.	.
!	!	!	!	!	!	!	!	!	!	!LO:LB:g=original	!	!
=6	=6	=6	=6	=6	=6	=6	=6	=6	=6	=6	=6	=6
*	*	*	*2\right	*	*	*	*	*	*	*	*	*
2C/	Vir-	<	2c\	vir-	<	2G\	vir-	.	<	2ee\	Vir-	<
2C#X/	-go	[[	2B-X\	-go	[	2G\	-go	.	[[	2ee\	-go	[
!LO:LB:g=original	!	!	!LO:LB:g=original	!	!	!LO:LB:g=original	!	!	!	!	!	!
=7	=7	=7	=7	=7	=7	=7	=7	=7	=7	=7	=7	=7
4.D/	foe-	.	4.Bn\	foe-	.	4.G\	foe-	.	.	4.dd\	foe-	.
8D/	-lix	.	8B\	-lix	.	8G\	-lix	.	>	8dd\	-lix	.
4D/	coe-	>	4A/	coe-	>	4F#X\	coe-	.	.	4dd\	coe-	.
.	.	.	.	.	.	.	.	.	.	.	.	>
4D/	-li	.	4A/	-li	.	4F#\	-li	.	]]	4dd\	-li	.
=8	=8	=8	=8	=8	=8	=8	=8	=8	=8	=8	=8	=8
!	!	!	!	!	!	!LO:TX:t=P:problem=1 wers skreślony; drugi wers dopisany ołówkiem	!	!	!	!	!	!
4GG/	coe-	]	2B\	por-	.	4G\	por-	coe-	.	2dd\	por-	.
4G\	-li	.	.	.	]	4G\	-ta	-li	.	.	.	.
4G\	por-	.	4B\	-ta,	.	4G\	coe-	por-	.	4dd\	-ta,	]
4G\	-ta	.	4r	.	.	4G\	-li	-ta	>	4r	.	.
=9	=9	=9	=9	=9	=9	=9	=9	=9	=9	=9	=9	=9
4.F\	su-	>	4.B\	su-	.	4.G\	foe-	su-	.	4.dd\	su-	>
8F\	-mens	]	8B\	-mens	<	8G\	-lix	-mens	]	8dd\	-mens	]
4F\	il-	.	4B\	il-	.	4G\	coe-	il-	.	(8cc#X\L	il-	.
.	.	.	.	.	[	.	.	.	.	8dd\J)	.	.
4F\	-lud	.	4B\	-lud	.	4G\	-li	-lud	.	(8ee\L	-lud	.
.	.	.	.	.	.	.	.	.	.	8ff\J)	.	.
!LO:LB:g=original	!	!	!	!	!	!	!	!	!	!LO:LB:g=original	!	!
=10	=10	=10	=10	=10	=10	=10	=10	=10	=10	=10	=10	=10
*2\right	*	*	*	*	*	*	*	*	*	*	*	*
2E\	a-	>	2c^\	a-	.	2G\	por-	a-	.	(4gg^\	a-	.
.	.	.	.	.	.	.	.	.	.	4ee\)	.	.
4E\	-ve,	]	4c\	-ve	.	4G\	-ta	-ve	.	4cc\	-ve	.
4r	.	.	4r	.	.	4r	.	.	.	4r	.	.
!	!	!	!LO:LB:g=original	!	!	!LO:LB:g=original	!	!	!	!	!	!
=11	=11	=11	=11	=11	=11	=11	=11	=11	=11	=11	=11	=11
4.BB/	ga-	<	4.d\	ga-	<	4.G\	ga-	.	<	4.ff\	ga-	<
8BB/	-bri-	.	8c#X\	-bri-	.	8G\	-bri-	.	.	8ee\	-bri-	.
4BB/	-e-	[	(8d\L	-e-	[	4G\	-e-	.	.	(8ff\L	-e-	[
.	.	>	8f\J	.	.	.	.	.	.	8aa\J)	.	.
4BB/	-lis	.	8e\L	-lis	.	4G\	-lis	.	[	(8gg\L	-lis	.
.	.	]]	8d\J	.	.	.	.	.	.	8ff\J)	.	.
=12	=12	=12	=12	=12	=12	=12	=12	=12	=12	=12	=12	=12
2C/	o-	.	2d\)	o-	>	2G\	o-	.	>	2ff\	o-	>
4C/	-re,	.	4c\	-re	]	4G\	-re,	.	]	4ee\	-re,	]
4r	.	p	4r	.	.	4r	.	.	p	4r	.	p
=13	=13	=13	=13	=13	=13	=13	=13	=13	=13	=13	=13	=13
4.A\	fun-	.	4.c\	fun-	<	4.A\	fun-	.	.	4.ff\	fun-	.
8A\	-da	<	8c\	-da	.	8A\	-da	.	<	8ff\	-da	.
4.G\	nos	.	4.c\	nos	.	4.G\	nos	.	.	4.ee\	nos	.
8G\	in	[	8c\	in	[	8G\	in	.	[	8ee\	in	.
!LO:LB:g=original	!	!	!	!	!	!	!	!	!	!LO:LB:g=original	!	!
=14	=14	=14	=14	=14	=14	=14	=14	=14	=14	=14	=14	=14
2F\	pa-	>	2c\	pa-	>]	2A\	pa-	.	>	2dd^\	pa-	.
4F#X\	-ce,	]	4c\	-ce	.	4A\	-ce	.	]	4dd#X\	-ce	.
4r	.	.	4r	.	.	4r	.	.	.	4r	.	.
!	!	!	!LO:LB:g=original	!	!	!LO:LB:g=original	!	!	!	!	!	!
=15	=15	=15	=15	=15	=15	=15	=15	=15	=15	=15	=15	=15
4G\	mu-	.	4c\	mu-	<	4G\	mu-	.	.	4ee\	mu-	<
4GG/	-tans	<	4c\	-tans	.	4G\	-tans	.	<	4ee\	-tans	.
4C/	no-	.	4c\	no-	.	4G\	no-	.	.	4ee\	no-	.
4E/	-men	[[	4c\	-men	[[	4G\	-men	.	[	4ee\	-men	[
=16	=16	=16	=16	=16	=16	=16	=16	=16	=16	=16	=16	=16
(2G\	E-	.	(2c\	E-	.	(2G\	E-	.	.	(2dd\	E-	.
2GG/)	.	>	2B\)	.	>	2F\)	.	.	>	2gg\)	.	>
=17:|!	=17:|!	=17:|!	=17:|!	=17:|!	=17:|!	=17:|!	=17:|!	=17:|!	=17:|!	=17:|!	=17:|!	=17:|!
4C/	-ve	]	4G/	-ve	.	4E\	-ve,	.	.	4cc\	-ve,	]
4r	.	.	4r	.	]	4r	.	.	]	4r	.	.
4C/	mu-	>	4c\	mu-	.	4A\	mu-	.	.	4ff\	mu-	>
.	.	.	.	.	>	.	.	.	>	.	.	.
4C/	-tans	]]	4c\	-tans	.	4G\	-tans	.	.	4ee\	-tans	]
!LO:LB:g=original	!	!	!	!	!	!	!	!	!	!LO:LB:g=original	!	!
=18	=18	=18	=18	=18	=18	=18	=18	=18	=18	=18	=18	=18
4C/	no-	.	4c\	no-	]	4F#X\	no-	.	]	4dd#X\	no-	>
4C/	-men	>	4c\	-men	.	4G\	-men	.	.	4ee\	-men	.
2C/	E-	.	(4G/	E-	>	(4E\	E-	.	.	2cc\	E-	.
.	.	]]	4A/)	.	.	4Fn\)	.	.	.	.	.	]
!	!	!	!	!	!	!LO:LB:g=original	!	!	!	!	!	!
=19	=19	=19	=19	=19	=19	=19	=19	=19	=19	=19	=19	=19
4C/	-ve.	.	4G/	-ve.	]	4E\	-ve.	.	>	4cc\	-ve.	.
4r	.	.	4r	.	.	4r	.	.	]	4r	.	.
!	!	!	!	!	!	!LO:TX:b:t=Wpisałem K. Molęcki	!	!	!	!	!	!
2r	.	.	2r	.	.	2r	.	.	.	2r	.	.
==	==	==	==	==	==	==	==	==	==	==	==	==
*-	*-	*-	*-	*-	*-	*-	*-	*-	*-	*-	*-	*-
!!!system-decoration: [(s1,s2,s3,s4)]
!!!RDF**kern: > = above
!!!ENC: Marta Lawrence
!!!END: 2021-02-11
!!!ENC: Andrzej Kubiczek
!!!END: 2021-01-31
